client/public/img/game/shared/obstacles/box_3.svg

<?xml version="1.0" encoding="UTF-8" standalone="no"?>
<!-- Created with Inkscape (http://www.inkscape.org/) -->

<svg width="91.796509" height="91.796532" viewBox="0 0 24.287827 24.287832" version="1.1" id="svg1" xml:space="preserve" sodipodi:docname="box_3.svg" inkscape:version="1.3.1 (91b66b0783, 2023-11-16, custom)" xmlns:inkscape="http://www.inkscape.org/namespaces/inkscape" xmlns:sodipodi="http://sodipodi.sourceforge.net/DTD/sodipodi-0.dtd" xmlns="http://www.w3.org/2000/svg" xmlns:svg="http://www.w3.org/2000/svg"><sodipodi:namedview id="namedview1" pagecolor="#ffffff" bordercolor="#000000" borderopacity="0.25" inkscape:showpageshadow="2" inkscape:pageopacity="0.0" inkscape:pagecheckerboard="0" inkscape:deskcolor="#d1d1d1" inkscape:document-units="mm" inkscape:zoom="6.6778122" inkscape:cx="45.898266" inkscape:cy="45.898266" inkscape:window-width="1440" inkscape:window-height="840" inkscape:window-x="0" inkscape:window-y="0" inkscape:window-maximized="1" inkscape:current-layer="svg1" /><defs id="defs1" /><g id="layer1"><rect ry="0" rx="0" y="0.69453782" x="0.69453752" height="22.898762" width="22.898762" id="rect1560" style="fill:#af7a53;fill-opacity:1;fill-rule:nonzero;stroke:#342418;stroke-width:1.38907;stroke-linecap:round;stroke-linejoin:round;stroke-miterlimit:4;stroke-dasharray:none;stroke-dashoffset:0;stroke-opacity:1;paint-order:normal" /><path id="circle32" style="fill:#ffffff;stroke-width:0.44579" d="m 17.575694,2.8974701 a 2.1811266,2.1811266 0 0 0 -1.890243,2.1558186 2.1811266,2.1811266 0 0 0 0.03225,0.3595956 2.1811266,2.1811266 0 0 0 -0.326536,0.1505552 2.1811266,2.1811266 0 0 0 -0.922051,2.7156496 l 0.06795,-0.03915 A 1.5267886,1.5267886 0 0 1 15.21445,6.421066 1.5267886,1.5267886 0 0 1 16.050311,6.2182656 1.5267886,1.5267886 0 0 1 17.258833,6.9200418 l 0.199456,-0.1156502 a 0.43622528,0.43622528 0 0 1 -0.0279,-0.1515002 0.43622528,0.43622528 0 0 1 0.363075,-0.4292408 V 5.9919903 A 1.5267885,1.5267885 0 0 1 16.339422,4.4717527 1.5267885,1.5267885 0 0 1 17.575784,2.9741802 Z m 0.581626,0 v 0.07665 a 1.5267885,1.5267885 0 0 1 1.236362,1.4975725 1.5267885,1.5267885 0 0 1 -1.454028,1.5245726 v 0.2273704 a 0.43622528,0.43622528 0 0 1 0.363091,0.4292408 0.43622528,0.43622528 0 0 1 -0.0279,0.1515002 L 18.4743,6.9200268 a 1.5267886,1.5267886 0 0 1 1.208492,-0.7017762 1.5267886,1.5267886 0 0 1 0.835877,0.2028004 1.5267886,1.5267886 0 0 1 0.679996,1.820613 l 0.0696,0.04005 A 2.1811266,2.1811266 0 0 0 20.341848,5.5634545 2.1811266,2.1811266 0 0 0 20.015343,5.4128993 2.1811266,2.1811266 0 0 0 20.047593,5.0533187 2.1811266,2.1811266 0 0 0 18.15735,2.8974851 Z m -0.290806,1.792743 c -0.45942,0 -0.882151,0.1605753 -1.217207,0.4266457 a 1.3813801,1.3813801 0 0 0 0.315181,0.3952807 c 0.247605,-0.1956454 0.560176,-0.3134256 0.902026,-0.3134256 0.343231,0 0.657436,0.1180502 0.905522,0.3151656 a 1.3813801,1.3813801 0 0 0 0.31431,-0.3952807 C 18.750871,4.8513134 18.327075,4.6902131 17.866514,4.6902131 Z m -1.823223,1.6734628 a 1.3813801,1.3813801 0 0 0 -0.1167,0.0045 c -0.015,0.093 -0.02385,0.1872903 -0.02385,0.2838455 0,0.8271463 0.517531,1.5358975 1.244192,1.824093 a 1.3813801,1.3813801 0 0 0 0.18633,-0.4710458 C 16.792858,7.7934483 16.412097,7.2696174 16.412097,6.6520214 c 0,-0.07065 0.0075,-0.1393503 0.01665,-0.2070904 a 1.3813801,1.3813801 0 0 0 -0.385711,-0.0819 z m 3.646431,0 a 1.3813801,1.3813801 0 0 0 -0.385695,0.0819 c 0.009,0.06795 0.01665,0.1365002 0.01665,0.2070904 0,0.616051 -0.378556,1.1394769 -0.916832,1.3521772 a 1.3813801,1.3813801 0 0 0 0.185386,0.4710458 c 0.724936,-0.2890205 1.240742,-0.9973367 1.240742,-1.823223 0,-0.0966 -0.009,-0.1908604 -0.02385,-0.2838455 a 1.3813801,1.3813801 0 0 0 -0.116701,-0.0045 z M 17.531294,6.9304968 17.334463,7.044497 A 1.5267886,1.5267886 0 0 1 16.740657,9.0653604 1.5267886,1.5267886 0 0 1 14.827764,8.7431898 l -0.06795,0.03915 a 2.1811266,2.1811266 0 0 0 2.812325,0.558976 2.1811266,2.1811266 0 0 0 0.296025,-0.2063703 2.1811266,2.1811266 0 0 0 0.292561,0.2063703 2.1811266,2.1811266 0 0 0 2.81231,-0.5589759 l -0.06795,-0.03915 A 1.5267886,1.5267886 0 0 1 18.992191,9.0653604 1.5267886,1.5267886 0 0 1 18.400995,7.046237 L 18.20154,6.9311868 a 0.43622528,0.43622528 0 0 1 -0.335206,0.1576953 0.43622528,0.43622528 0 0 1 -0.33522,-0.1584153 z" /><path id="path1562" d="M 12.143988,0.69453193 V 23.593285" style="fill:none;stroke:#342418;stroke-width:1.38907;stroke-linecap:round;stroke-linejoin:round;stroke-miterlimit:4;stroke-dasharray:none;stroke-opacity:1;paint-order:normal" /></g></svg>

<svg width="91.797" height="91.797" viewBox="0 0 24.288 24.288" xml:space="preserve" xmlns="http://www.w3.org/2000/svg">
    <rect ry="0" rx="0" y=".794" x=".794" height="22.7" width="22.7" style="fill:#af7a53;fill-opacity:1;fill-rule:nonzero;stroke:#342418;stroke-width:1.5875;stroke-linecap:round;stroke-linejoin:round;stroke-miterlimit:4;stroke-dasharray:none;stroke-dashoffset:0;stroke-opacity:1;paint-order:normal"/>
    <path style="fill:#fff;stroke-width:.44579" d="M17.576 2.897a2.181 2.181 0 0 0-1.89 2.156 2.181 2.181 0 0 0 .032.36 2.181 2.181 0 0 0-.327.15 2.181 2.181 0 0 0-.922 2.716l.068-.04a1.527 1.527 0 0 1 .677-1.818 1.527 1.527 0 0 1 .836-.203 1.527 1.527 0 0 1 1.209.702l.2-.116a.436.436 0 0 1-.029-.151.436.436 0 0 1 .363-.43v-.231a1.527 1.527 0 0 1-1.454-1.52 1.527 1.527 0 0 1 1.237-1.498Zm.581 0v.077a1.527 1.527 0 0 1 1.237 1.498 1.527 1.527 0 0 1-1.454 1.524v.228a.436.436 0 0 1 .363.429.436.436 0 0 1-.028.151l.2.116a1.527 1.527 0 0 1 1.208-.702 1.527 1.527 0 0 1 .836.203 1.527 1.527 0 0 1 .68 1.82l.07.04a2.181 2.181 0 0 0-.927-2.718 2.181 2.181 0 0 0-.327-.15 2.181 2.181 0 0 0 .033-.36 2.181 2.181 0 0 0-1.89-2.156Zm-.29 1.793c-.46 0-.883.16-1.218.427a1.381 1.381 0 0 0 .315.395c.248-.196.56-.313.903-.313.343 0 .657.118.905.315a1.381 1.381 0 0 0 .314-.395 1.952 1.952 0 0 0-1.22-.429Zm-1.824 1.674a1.381 1.381 0 0 0-.116.004 1.777 1.777 0 0 0-.024.284c0 .827.517 1.536 1.244 1.824a1.381 1.381 0 0 0 .186-.47 1.45 1.45 0 0 1-.904-1.561 1.381 1.381 0 0 0-.386-.082zm3.647 0a1.381 1.381 0 0 0-.386.082 1.45 1.45 0 0 1-.9 1.56 1.381 1.381 0 0 0 .185.47 1.967 1.967 0 0 0 1.241-1.823c0-.097-.009-.191-.024-.284a1.381 1.381 0 0 0-.117-.005zm-2.159.566-.197.114a1.527 1.527 0 0 1-.593 2.021 1.527 1.527 0 0 1-1.913-.322l-.068.04a2.181 2.181 0 0 0 2.812.558 2.181 2.181 0 0 0 .296-.206 2.181 2.181 0 0 0 .293.206 2.181 2.181 0 0 0 2.812-.559l-.068-.039a1.527 1.527 0 0 1-1.913.322 1.527 1.527 0 0 1-.591-2.019l-.2-.115a.436.436 0 0 1-.335.158.436.436 0 0 1-.335-.159z"/>
    <path d="M12.144.992v22.33" style="fill:none;stroke:#342418;stroke-width:1.58750291;stroke-linecap:round;stroke-linejoin:round;stroke-miterlimit:4;stroke-dasharray:none;stroke-opacity:1;paint-order:normal"/>
</svg>
